!!!OTL: KEIN BESSER LEBEN IST AUF DIESER WELT ZU DENKEN
!!!ARE: Europa, Mitteleuropa, Deutschland
!!!SCT: Z0183
!!!YEM: Copyright 1995, estate of Helmut Schaffrath.
**kern
*ICvox
*Ivox
*M2/4
*k[f#c#g#]
*A:
{8e
=1
8a
8cc#
8cc#
8ee
=2
4ee
8dd}
{8cc#
=3
8.dd
16ff#
8ee
8dd
=4
8dd
8cc#
8r}
{8e
=5
8a
8cc#
8cc#
8ee
=6
4ee
8dd}
{8cc#
=7
8.dd
16ff#
8ee
8dd
=8
8dd
8cc#
8r}
{8ee
=9
8ee
8b
8b
8ee
=10
4ee
8dd#}
{8ee
=11
8ff#
8dd#
8b
8a
=12
4a
8g#}
{8e
=13
8a
8cc#
8cc#
8ee
=14
4ee
8dd}
{8ee
=15
8dd
8ff#
16ee
16dd
16cc#
16b
=16
8a}
{16a
16a
8a
16cc#
16cc#
=17
8cc#
16ee
16dd
8cc#}
==
!!!AGN: Soldaten - Lied, siebenjaehriger Krieg
!!!ONB: ESAC (Essen Associative Code) Database: ZUCCAL
!!!AMT: simple duple
!!!AIN: vox
!!!EED: Helmut Schaffrath
!!!EEV: 1.0
*-
